X: 27295
T: Miss Wedderburn's
R: reel
M: 4/4
K: Amajor
F2|E2 EF EFAc|B>ABc B>AFA|E2 EF EF Ac|B>ABc A2:|
Ac|d2 fd c2 ec|B>ABc BAFA|d2 fd c2 ec|B>ABc A<A Ac|
dfdf cece|B>ABc BAFc|efge abaf|edcB A<A A2||

